X:47
T:BNYJEAN1- Bonnie Jean
S:Guthrie MS, c 1675
Q:1/4=156
L:1/4
M:C
K:F
c/|c/A3/2F3/2G/|G/E3/2C3/2c/|c/A3/2F3/2F/|G3/2A/B3/2c/|\
c/A3/2F3/2G/|G/E3/2C3/2F/|D3/2G/C3/2C/|DEF2||\
c/A3/2G3/2A/|FGA3/2G/|A/G/E/D/C3/2A/|G/A/F/G/A3/2A/|\
GAB3/2A/|G/A/F/G/A3/2G/|A/G/E/D/C3/2F/|\
D/DG/ C/CC/|DEF3/2|]

